X: 531
T: If Ever You Were Mine
N: page 217
C: Maurice Lennon
M: 3/4
L: 1/8
K: G
DE|:"G"G4 e2|"D"d4 (3BAG|"C"AB G4|"G"G4 DE|\
 G4 e2|"D"d4 Bd|d6-|d2e2f2|
"Em"g4 ed|"C" g4 ed|"G"e2d3B|"Em"AB G2 (3GFE|\
"G"D4 ed|"D"d4 (3BAG|"C"DEG2GA|"G"G6|G6::
"G"B3d (3BAG|"D"d4 (3Bcd|"C"c2d2e2|"D"d4 (3Bcd|\
"Em"B3d (3BAG|"D"d4 (3Bcd|"C"c2d2e2|"D"de fd ef|
"Em"g2g2ed|"C"g2g2ed|"G"e2d3B|"Em"AB G2 (3GFE|\
"G"D4 ed|"D"d4 (3BAG|"C"DE G2 GA|G6|G6:|
